X: 18064
T: Humours Of Ballinamult, The
R: jig
M: 6/8
K: Edorian
A|:B3 EFE|BAG FED|B3 EFE|BAB dAF|
B3 EFE|BAG FED|A2 D FDF|A3 AGF:|
|:EFE E2 F|DED D2 F|EFE E2 d|B3 BAF|
EFE E2 F|DED DFG|A2 D FDF|A3 AGF:|
|:B2 c d2 e|fdB AGF|B2 c d2 e|f2 e fdB|
B2 c d2 e|fdB AGF|DED FDF|1 A3 AGF:|2 A2 F G2||

